X: 194
T: Dunmanway lasses
C: anon.
O: Ireland
B: Francis O'Neill: "The Dance Music of Ireland" (1907) no. 194
R: Double jig
Z: Transcribed by Frank Nordberg - http://www.musicaviva.com
F: http://www.musicaviva.com/abc/tunes/ireland/oneill-1001/oneill-1001-019
4.abc
M: 6/8
L: 1/8
K: G
D|GFG dBG|BAB dBG|GFG dBG|GAG GED|GFG dBG|BAB dBG|GBG B2A|GEE E2:|
|:d|gfg aga|bge edB|gfg aga|bge e2(g/a/)|bgg agg|ege dBG|BAB GBA|GEE E2:|


